public/assets/vector/404.svg

<svg width="1602" height="479" viewBox="0 0 1602 479" fill="none" xmlns="http://www.w3.org/2000/svg">
<rect x="1226.65" y="57.282" width="374.848" height="364.436" rx="9.5" fill="#F5F5F4" stroke="#9A9A9A"/>
<rect x="410.634" y="57.282" width="374.848" height="364.436" rx="9.5" fill="#F5F5F4" stroke="#9A9A9A"/>
<rect x="819.143" y="57.782" width="373.848" height="363.436" rx="9" fill="#FCFCFC" stroke="#BFBFBF" stroke-width="2" stroke-dasharray="10 10"/>
<rect x="2.62451" y="57.282" width="374.848" height="364.436" rx="9.5" fill="#F5F5F4" stroke="#9A9A9A"/>
<path d="M3.10559 67.769C3.10559 62.2462 7.58274 57.769 13.1056 57.769H79.587C79.587 57.769 79.587 199.372 79.587 270.077C79.587 343.278 154.921 421.44 154.921 421.44H13.1056C7.58275 421.44 3.10559 416.963 3.10559 411.44V67.769Z" fill="#E8E8E8"/>
<path d="M411.12 67.769C411.12 62.2462 415.598 57.769 421.12 57.769H461.208C461.208 57.769 461.208 199.372 461.208 270.077C461.208 343.278 510.544 421.44 510.544 421.44H421.12C415.598 421.44 411.12 416.963 411.12 411.44V67.769Z" fill="#E8E8E8"/>
<path d="M1227.41 67.769C1227.41 62.2462 1231.89 57.769 1237.41 57.769H1258.01C1258.01 57.769 1258.01 199.372 1258.01 270.077C1258.01 343.278 1288.16 421.44 1288.16 421.44H1237.41C1231.89 421.44 1227.41 416.963 1227.41 411.44V67.769Z" fill="#E8E8E8"/>
<rect x="172.742" y="73.3762" width="115.062" height="16.9878" rx="8.49389" fill="white" stroke="#9A9A9A"/>
<rect x="20.7491" y="73.3762" width="42.8808" height="16.9878" rx="8.49389" fill="white" stroke="#9A9A9A"/>
<rect x="300.25" y="73.3762" width="42.8808" height="16.9878" rx="8.49389" fill="white" stroke="#9A9A9A"/>
<rect x="18.3304" y="147.22" width="324.801" height="46.3363" rx="4.5" fill="white" stroke="#9A9A9A"/>
<rect x="25.5188" y="237.16" width="321.428" height="142.902" rx="4.5" fill="white" stroke="#9A9A9A"/>
<rect x="42.6895" y="250.414" width="147.813" height="16.9878" rx="1.5" fill="#EEEEEE" stroke="#9A9A9A"/>
<rect x="41.7357" y="275.976" width="80.084" height="16.0411" rx="1.5" fill="#EEEEEE" stroke="#9A9A9A"/>
<rect x="42.6895" y="351.714" width="106.794" height="16.0411" rx="1.5" fill="#EEEEEE" stroke="#9A9A9A"/>
<rect x="20.7491" y="114.085" width="109.656" height="23.6149" rx="4.5" fill="white" stroke="#9A9A9A"/>
<rect x="580.75" y="73.3762" width="115.062" height="16.9878" rx="8.49389" fill="white" stroke="#9A9A9A"/>
<rect x="428.758" y="73.3762" width="42.8808" height="16.9878" rx="8.49389" fill="white" stroke="#9A9A9A"/>
<rect x="708.259" y="73.3762" width="42.8808" height="16.9878" rx="8.49389" fill="white" stroke="#9A9A9A"/>
<rect x="426.339" y="147.22" width="324.801" height="46.3363" rx="4.5" fill="white" stroke="#9A9A9A"/>
<rect x="843.666" y="120.596" width="324.801" height="43.8042" rx="4.5" fill="white" stroke="#BFBFBF" stroke-dasharray="5 5"/>
<rect x="843.666" y="345.962" width="324.801" height="43.8042" rx="4.5" fill="white" stroke="#BFBFBF" stroke-dasharray="5 5"/>
<rect x="433.528" y="237.16" width="146.223" height="70.9511" rx="4.5" fill="white" stroke="#9A9A9A"/>
<rect x="433.528" y="324.259" width="146.223" height="70.9511" rx="4.5" fill="white" stroke="#9A9A9A"/>
<rect x="604.918" y="237.16" width="146.223" height="70.9511" rx="4.5" fill="white" stroke="#9A9A9A"/>
<rect x="428.758" y="114.085" width="109.656" height="23.6149" rx="4.5" fill="white" stroke="#9A9A9A"/>
<rect x="846.085" y="89.2336" width="109.656" height="22.2982" rx="4.5" fill="white" stroke="#BFBFBF" stroke-dasharray="5 5"/>
<rect x="846.085" y="308.327" width="322.382" height="22.2982" rx="4.5" fill="white" stroke="#BFBFBF" stroke-dasharray="5 5"/>
<rect x="846.085" y="276.964" width="67.103" height="22.2982" rx="4.5" fill="white" stroke="#BFBFBF" stroke-dasharray="5 5"/>
<rect x="1396.77" y="73.3762" width="115.062" height="16.9878" rx="8.49389" fill="white" stroke="#9A9A9A"/>
<rect x="1244.78" y="73.3762" width="42.8808" height="16.9878" rx="8.49389" fill="white" stroke="#9A9A9A"/>
<rect x="1524.28" y="73.3762" width="42.8808" height="16.9878" rx="8.49389" fill="white" stroke="#9A9A9A"/>
<rect x="1242.36" y="147.22" width="203.264" height="46.3363" rx="4.5" fill="white" stroke="#9A9A9A"/>
<rect x="1245.95" y="217.279" width="199.67" height="142.902" rx="4.5" fill="white" stroke="#9A9A9A"/>
<rect x="1263.44" y="230.532" width="150.527" height="16.9878" rx="1.5" fill="#EEEEEE" stroke="#9A9A9A"/>
<rect x="1262.46" y="256.094" width="81.5629" height="16.0411" rx="1.5" fill="#EEEEEE" stroke="#9A9A9A"/>
<rect x="1263.44" y="331.832" width="108.76" height="16.0411" rx="1.5" fill="#EEEEEE" stroke="#9A9A9A"/>
<rect x="1244.78" y="114.085" width="109.656" height="23.6149" rx="4.5" fill="white" stroke="#9A9A9A"/>
</svg>

<svg width="1602" height="479" fill="none" xmlns="http://www.w3.org/2000/svg"><rect x="1226.65" y="57.282" width="374.848" height="364.436" rx="9.5" fill="#F5F5F4" stroke="#9A9A9A"/><rect x="410.634" y="57.282" width="374.848" height="364.436" rx="9.5" fill="#F5F5F4" stroke="#9A9A9A"/><rect x="819.143" y="57.782" width="373.848" height="363.436" rx="9" fill="#FCFCFC" stroke="#BFBFBF" stroke-width="2" stroke-dasharray="10 10"/><rect x="2.625" y="57.282" width="374.848" height="364.436" rx="9.5" fill="#F5F5F4" stroke="#9A9A9A"/><path d="M3.106 67.769c0-5.523 4.477-10 10-10h66.481v212.308c0 73.201 75.334 151.363 75.334 151.363H13.106c-5.523 0-10-4.477-10-10V67.769zM411.12 67.769c0-5.523 4.478-10 10-10h40.088v212.308c0 73.201 49.336 151.363 49.336 151.363H421.12c-5.522 0-10-4.477-10-10V67.769zM1227.41 67.769c0-5.523 4.48-10 10-10h20.6v212.308c0 73.201 30.15 151.363 30.15 151.363h-50.75c-5.52 0-10-4.477-10-10V67.769z" fill="#E8E8E8"/><rect x="172.742" y="73.376" width="115.062" height="16.988" rx="8.494" fill="#fff" stroke="#9A9A9A"/><rect x="20.749" y="73.376" width="42.881" height="16.988" rx="8.494" fill="#fff" stroke="#9A9A9A"/><rect x="300.25" y="73.376" width="42.881" height="16.988" rx="8.494" fill="#fff" stroke="#9A9A9A"/><rect x="18.33" y="147.22" width="324.801" height="46.336" rx="4.5" fill="#fff" stroke="#9A9A9A"/><rect x="25.519" y="237.16" width="321.428" height="142.902" rx="4.5" fill="#fff" stroke="#9A9A9A"/><rect x="42.69" y="250.414" width="147.813" height="16.988" rx="1.5" fill="#EEE" stroke="#9A9A9A"/><rect x="41.736" y="275.976" width="80.084" height="16.041" rx="1.5" fill="#EEE" stroke="#9A9A9A"/><rect x="42.69" y="351.714" width="106.794" height="16.041" rx="1.5" fill="#EEE" stroke="#9A9A9A"/><rect x="20.749" y="114.085" width="109.656" height="23.615" rx="4.5" fill="#fff" stroke="#9A9A9A"/><rect x="580.75" y="73.376" width="115.062" height="16.988" rx="8.494" fill="#fff" stroke="#9A9A9A"/><rect x="428.758" y="73.376" width="42.881" height="16.988" rx="8.494" fill="#fff" stroke="#9A9A9A"/><rect x="708.259" y="73.376" width="42.881" height="16.988" rx="8.494" fill="#fff" stroke="#9A9A9A"/><rect x="426.339" y="147.22" width="324.801" height="46.336" rx="4.5" fill="#fff" stroke="#9A9A9A"/><rect x="843.666" y="120.596" width="324.801" height="43.804" rx="4.5" fill="#fff" stroke="#BFBFBF" stroke-dasharray="5 5"/><rect x="843.666" y="345.962" width="324.801" height="43.804" rx="4.5" fill="#fff" stroke="#BFBFBF" stroke-dasharray="5 5"/><rect x="433.528" y="237.16" width="146.223" height="70.951" rx="4.5" fill="#fff" stroke="#9A9A9A"/><rect x="433.528" y="324.259" width="146.223" height="70.951" rx="4.5" fill="#fff" stroke="#9A9A9A"/><rect x="604.918" y="237.16" width="146.223" height="70.951" rx="4.5" fill="#fff" stroke="#9A9A9A"/><rect x="428.758" y="114.085" width="109.656" height="23.615" rx="4.5" fill="#fff" stroke="#9A9A9A"/><rect x="846.085" y="89.234" width="109.656" height="22.298" rx="4.5" fill="#fff" stroke="#BFBFBF" stroke-dasharray="5 5"/><rect x="846.085" y="308.327" width="322.382" height="22.298" rx="4.5" fill="#fff" stroke="#BFBFBF" stroke-dasharray="5 5"/><rect x="846.085" y="276.964" width="67.103" height="22.298" rx="4.5" fill="#fff" stroke="#BFBFBF" stroke-dasharray="5 5"/><rect x="1396.77" y="73.376" width="115.062" height="16.988" rx="8.494" fill="#fff" stroke="#9A9A9A"/><rect x="1244.78" y="73.376" width="42.881" height="16.988" rx="8.494" fill="#fff" stroke="#9A9A9A"/><rect x="1524.28" y="73.376" width="42.881" height="16.988" rx="8.494" fill="#fff" stroke="#9A9A9A"/><rect x="1242.36" y="147.22" width="203.264" height="46.336" rx="4.5" fill="#fff" stroke="#9A9A9A"/><rect x="1245.95" y="217.279" width="199.67" height="142.902" rx="4.5" fill="#fff" stroke="#9A9A9A"/><rect x="1263.44" y="230.532" width="150.527" height="16.988" rx="1.5" fill="#EEE" stroke="#9A9A9A"/><rect x="1262.46" y="256.094" width="81.563" height="16.041" rx="1.5" fill="#EEE" stroke="#9A9A9A"/><rect x="1263.44" y="331.832" width="108.76" height="16.041" rx="1.5" fill="#EEE" stroke="#9A9A9A"/><rect x="1244.78" y="114.085" width="109.656" height="23.615" rx="4.5" fill="#fff" stroke="#9A9A9A"/></svg>
